Yaru++/places/48/folder-documents.svg

<svg height="48" viewBox="0 0 12.699375 12.699375" width="48" xmlns="http://www.w3.org/2000/svg" xmlns:xlink="http://www.w3.org/1999/xlink"><linearGradient id="a" gradientUnits="userSpaceOnUse" x1="14.120835" x2="26.291069" y1="2.346995" y2="11.606956"><stop offset="0" stop-color="#666"/><stop offset="1" stop-color="#7a7a7a"/></linearGradient><linearGradient id="b" gradientUnits="userSpaceOnUse" x1="14.120835" x2="26.291069" y1="11.871526" y2=".495003"><stop offset="0" stop-color="#2c001e"/><stop offset=".10864977" stop-color="#2c001e"/><stop offset=".18689813" stop-color="#370626"/><stop offset=".2980746" stop-color="#55163b"/><stop offset=".37246177" stop-color="#772953"/><stop offset=".44700962" stop-color="#7c2b51"/><stop offset=".52428877" stop-color="#8b314b"/><stop offset=".59614229" stop-color="#8b314b"/><stop offset=".66876179" stop-color="#a33a41"/><stop offset=".79755175" stop-color="#c44732"/><stop offset=".91251218" stop-color="#e65524"/><stop offset="1" stop-color="#e65524"/></linearGradient><g transform="translate(-13.873303 .034132)"><path d="m16.452361.75957308c-.76736 0-1.336345-.0251342-1.761033.29609122-.215228.1627954-.358123.4080097-.440272.7187846-.08183.3095314-.113183.6915233-.113183 1.1874657v2.4886144.8650206 3.2461533c0 .5164991.01402.9104841.0708 1.2288051.05699.319035.164616.577967.366906.758057.201761.17963.463713.253967.765799.288856.301822.03486.660447.03411 1.110984.03411h7.541285c.442044 0 .796383.00053 1.096512-.03411.300367-.03489.562344-.108823.765825-.287305.203931-.178908.315606-.437335.375664-.757023.05992-.318974.07596-.714131.07596-1.2313901v-4.9048849c0-.068328-.0032-.112736-.0037-.1601893v-.0031l.0037-.4960694c.0034-.4789278.005-.8601497-.03048-1.1786818-.035454-.3186016-.110248-.5900878-.289891-.8009397-.180437-.211741-.44305-.3281281-.764794-.3891036-.320738-.0607692-.71553-.0754449-1.229326-.0754449h-4.207276l-.793711-.79371093z" opacity=".1"/><path d="m16.452361.49500277c-.76736 0-1.336345-.0251342-1.761033.29609121-.215228.16279541-.358123.40800972-.440272.71878462-.081831.3095314-.113183.6915233-.113183 1.1874657v2.2953537h12.170234v-.6004503c0-.068328-.0032-.112736-.0037-.1601894v-.0031l.0037-.4960694c.0034-.4789278.005-.8601497-.03048-1.1786818-.03545-.3186061-.11022-.5900923-.28989-.8009443-.18041-.2117409-.443049-.328128-.764767-.3891035-.320765-.0607665-.71553-.0754449-1.229326-.0754449h-4.207274l-.793711-.79371096z" fill="url(#b)"/><path d="m19.941911 2.346995-.79424.7937108h-2.69531c-1.802465 0-2.049891-.0000556-2.049891 2.0452529v.2645703c0-2.0453084.247426-2.0452529 2.049891-2.0452529h2.69531l.79424-.7937108h4.051735c1.768362 0 2.049918-.0000556 2.049918 2.0452527v-.2645703c0-2.0453083-.281556-2.0452527-2.049918-2.0452527z" fill="#fff" opacity=".3"/><path d="m23.995366 2.346995c.76736 0 1.336345-.025134 1.761033.2960912.215228.1627954.358122.4080097.440271.7187845.08181.3095314.113157.6915233.113157 1.1874657v2.4886145 1.1295908 1.1295909c0 .5164995-.01402.9104874-.0708 1.2288044-.05696.319035-.164589.577968-.36688.758058-.201787.17963-.463712.253966-.765798.288855-.301822.03486-.660447.03411-1.110984.03411h-7.541312c-.442018 0-.796383.000529-1.096512-.03411-.300339-.03489-.562343-.108823-.765798-.287304-.203957-.178908-.315632-.437335-.375663-.757024-.05992-.318974-.07596-.7141306-.07596-1.2313894v-3.0528927c0-.068328.0032-.112736.0037-.1601894v-.0031l-.0037-.4960694c-.0034-.4789278-.005-.8601498.03048-1.1786819.03545-.3186061.11022-.5900923.28989-.8009443.180411-.2117409.443049-.328128.764767-.3891035.320791-.060767.71815-.1270704 1.229352-.075445h2.619855l.793711-.7937108z" fill="url(#a)"/><path d="m26.291069 8.1675417-3.174844 3.1748443h1.240465c1.754524 0 1.934379-.179781 1.934379-1.9307976z" fill="#fff" opacity=".05"/><path d="m14.137899 9.0325623v.2645703c0 .5164995.01402.9104844.07077 1.2288044.05699.319035.164616.577968.366906.758058.201761.17963.463713.253966.765799.288855.301822.03486.660447.03411 1.110984.03411h7.541285c.442044 0 .796383.000529 1.096512-.03411.300367-.03489.562344-.108823.765825-.287304.203931-.178908.315606-.437335.375664-.757024.05992-.318974.07596-.7141306.07596-1.2313894v-.2645703c0 .5172588-.01614.9124157-.07596 1.2313897-.06006.319688-.171733.578115-.375664.757023-.203481.178482-.465458.252416-.765825.287305-.300129.03463-.654468.03411-1.096512.03411h-7.541285c-.450537 0-.809162.000794-1.110984-.03411-.302086-.03489-.564038-.109225-.765799-.288855-.20229-.180091-.309918-.439023-.366906-.758058-.0568-.3183203-.0708-.7123052-.07077-1.2288047z" opacity=".2"/><path d="m19.867487 2.346995-.793711.7937108h-2.619854c-.511203-.051625-.908561.014684-1.229326.075445-.321718.060975-.584357.1773653-.764767.3891035-.17967.210852-.254464.4823382-.28989.8009443-.01931.1733306-.02693.3704038-.02998.5864995h.01032c.0045-.1120111.009-.2250382.01958-.3219292.03545-.3186061.11022-.5900923.289889-.8009443.180411-.2117382.44305-.328128.764767-.3891035.320765-.060767.718123-.1270705 1.229326-.075445h2.619855l.793711-.7937108h4.12772c.76736 0 1.336345-.025134 1.761033.2960912.215228.1627954.358122.4080097.440271.7187845.08181.3095314.113157.6915233.113157 1.1874657v-.2645703c0-.4959424-.03135-.8779343-.113157-1.1874657-.082148-.3107748-.225042-.5559891-.44027-.7187845-.424688-.321236-.993673-.2960912-1.761033-.2960912z" fill="#fff" opacity=".2"/><path d="m19.867487 2.0824247-.793711.7937109h-2.619854c-.511203-.051626-.908561.014684-1.229326.075445-.321718.060976-.584357.1773653-.764767.3891034-.17967.210852-.254464.4823382-.28989.8009443-.01931.1733306-.02693.3704037-.02998.5864995h.01032c.0045-.1120112.009-.2250382.01958-.3219292.03545-.3186061.11022-.5900923.289889-.8009443.180411-.2117382.44305-.328128.764767-.3891035.320765-.060767.718123-.1270704 1.229326-.075445h2.619855l.793711-.7937108h4.12772c.76736 0 1.336345-.025134 1.761033.2960912.215228.1627954.358122.4080097.440271.7187845.08181.3095314.113157.6915233.113157 1.1874657v-.2645704c0-.4959423-.03135-.8779342-.113157-1.1874655-.082148-.3107749-.225042-.5559892-.44027-.7187846-.424688-.321236-.993673-.2960912-1.761033-.2960912z" fill="#732206" opacity=".1"/><g fill="#fff"><path d="m16.452361.49500277c-.76736 0-1.336345-.0251342-1.761033.29609121-.215228.16279541-.358123.40800972-.440272.71878462-.08183.3095314-.113183.6915233-.113183 1.1874657v.2645703c0-.4959424.03135-.8779343.113183-1.1874657.08215-.3107749.225017-.5559892.440272-.7187846.424688-.32123598.993673-.29609122 1.761033-.29609122h2.540298l.793711.79371092h4.207276c.513796 0 .908561.014684 1.229326.075445.321718.060976.584357.1773653.764767.3891036.17967.2108519.254437.4823381.28989.8009443.01773.159266.02646.3341522.02998.5291405 0-.2984167-.005-.5695722-.02998-.7937109-.03545-.3186062-.11022-.5900924-.28989-.8009443-.18041-.2117383-.443049-.3281281-.764767-.3891036-.320765-.0607665-.71553-.0754449-1.229326-.0754449h-4.207276l-.793711-.79371096zm9.853683 3.80113183-.0026.1973933v.0031c0 .047453.0037.091861.0037.1601894v-.2645749c0-.040995 0-.066516-.0026-.096113z" opacity=".2"/><path d="m19.428886 9.0933104c-.332882-.0038-.57647.0081-.775625-.1017975-.09958-.054941-.178117-.1479956-.221681-.2640533-.04357-.116058-.05943-.2538761-.05943-.4278599v-2.6457031c0-.1739844.01585-.3118168.05942-.42786.04357-.1160426.122107-.2086205.221681-.2635366.199147-.1098324.442769-.098328.775625-.1023144h.000529 1.323873.198428l1.124423 1.1244238v.1984278 2.1165625c0 .1739838-.01585.311817-.05942.4278599-.04357.1160427-.122107.2086208-.221681.2635366-.199147.1098322-.442771.098328-.775624.1023142h-.00053-1.588972zm.0016-.2645701h1.587422c.332994-.00403.552714-.015842.649541-.069243.04853-.026763.07599-.056316.101796-.1250507.02581-.068735.04237-.1781178.04237-.3348468v-2.1165626h-.529141-.52914v-1.0582812h-1.321301-.0016c-.332996.00403-.552714.015842-.649541.069243-.04853.026763-.07599.056315-.101796.1250507-.02582.068735-.04237.1781169-.04237.3348468v2.6457031c0 .156729.01656.2660828.04237.3348468.02582.068764.05327.098278.101796.1250507.09682.053421.316572.065353.649541.069243zm-.26462-1.0582813v-.2645703h2.116562v.2645703zm0-.5291406v-.2645703h2.116562v.2645703zm0-.5291406v-.2645703h2.116562v.2645703zm0 1.5874219v-.2645703h1.058281v.2645703z" fill="#fff" opacity=".75"/></g></g></svg>

<?xml version="1.0" encoding="UTF-8" standalone="no"?>
<svg
   xmlns:dc="http://purl.org/dc/elements/1.1/"
   xmlns:cc="http://creativecommons.org/ns#"
   xmlns:rdf="http://www.w3.org/1999/02/22-rdf-syntax-ns#"
   xmlns:svg="http://www.w3.org/2000/svg"
   xmlns="http://www.w3.org/2000/svg"
   xmlns:sodipodi="http://sodipodi.sourceforge.net/DTD/sodipodi-0.dtd"
   xmlns:inkscape="http://www.inkscape.org/namespaces/inkscape"
   height="48"
   viewBox="0 0 12.699375 12.699375"
   width="48"
   version="1.1"
   id="svg56"
   sodipodi:docname="folder-documents.svg"
   inkscape:version="0.92.5 (2060ec1f9f, 2020-04-08)">
  <metadata
     id="metadata62">
    <rdf:RDF>
      <cc:Work
         rdf:about="">
        <dc:format>image/svg+xml</dc:format>
        <dc:type
           rdf:resource="http://purl.org/dc/dcmitype/StillImage" />
      </cc:Work>
    </rdf:RDF>
  </metadata>
  <defs
     id="defs60" />
  <sodipodi:namedview
     pagecolor="#ffffff"
     bordercolor="#666666"
     borderopacity="1"
     objecttolerance="10"
     gridtolerance="10"
     guidetolerance="10"
     inkscape:pageopacity="0"
     inkscape:pageshadow="2"
     inkscape:window-width="1378"
     inkscape:window-height="745"
     id="namedview58"
     showgrid="false"
     inkscape:zoom="4.9166667"
     inkscape:cx="24"
     inkscape:cy="24"
     inkscape:window-x="0"
     inkscape:window-y="27"
     inkscape:window-maximized="0"
     inkscape:current-layer="g52" />
  <linearGradient
     id="a"
     gradientUnits="userSpaceOnUse"
     x1="14.12083451"
     x2="26.29106877"
     y1="2.3469947"
     y2="11.60695555">
    <stop
       offset="0"
       stop-color="#666"
       id="stop2" />
    <stop
       offset="1"
       stop-color="#7a7a7a"
       id="stop4" />
  </linearGradient>
  <linearGradient
     id="b"
     gradientUnits="userSpaceOnUse"
     x1="14.12083451"
     x2="26.29106877"
     y1="11.87152586"
     y2=".49500253">
    <stop
       offset="0"
       stop-color="#2c001e"
       id="stop7" />
    <stop
       offset=".10864977"
       stop-color="#2c001e"
       id="stop9" />
    <stop
       offset=".18689813"
       stop-color="#370626"
       id="stop11" />
    <stop
       offset=".2980746"
       stop-color="#55163b"
       id="stop13" />
    <stop
       offset=".37246177"
       stop-color="#772953"
       id="stop15" />
    <stop
       offset=".44700962"
       stop-color="#7c2b51"
       id="stop17" />
    <stop
       offset=".52428877"
       stop-color="#8b314b"
       id="stop19" />
    <stop
       offset=".59614229"
       stop-color="#8b314b"
       id="stop21" />
    <stop
       offset=".66876179"
       stop-color="#a33a41"
       id="stop23" />
    <stop
       offset=".79755175"
       stop-color="#c44732"
       id="stop25" />
    <stop
       offset=".91251218"
       stop-color="#e65524"
       id="stop27" />
    <stop
       offset="1"
       stop-color="#e65524"
       id="stop29" />
  </linearGradient>
  <g
     transform="translate(-13.873303 .034132)"
     id="g54">
    <path
       d="m16.452361.75957308c-.76736 0-1.336345-.0251342-1.761033.29609122-.215228.1627954-.358123.4080097-.440272.7187846-.08183.3095314-.113183.6915233-.113183 1.1874657v2.4886144.8650206 3.2461533c0 .5164991.01402.9104841.0708 1.2288051.05699.319035.164616.577967.366906.758057.201761.17963.463713.253967.765799.288856.301822.03486.660447.03411 1.110984.03411h7.541285c.442044 0 .796383.00053 1.096512-.03411.300367-.03489.562344-.108823.765825-.287305.203931-.178908.315606-.437335.375664-.757023.05992-.318974.07596-.714131.07596-1.2313901v-4.9048849c0-.068328-.0032-.112736-.0037-.1601893v-.0031l.0037-.4960694c.0034-.4789278.005-.8601497-.03048-1.1786818-.035454-.3186016-.110248-.5900878-.289891-.8009397-.180437-.211741-.44305-.3281281-.764794-.3891036-.320738-.0607692-.71553-.0754449-1.229326-.0754449h-4.207276l-.793711-.79371093z"
       opacity=".1"
       id="path32" />
    <path
       d="m16.452361.49500277c-.76736 0-1.336345-.0251342-1.761033.29609121-.215228.16279541-.358123.40800972-.440272.71878462-.081831.3095314-.113183.6915233-.113183 1.1874657v2.2953537h12.170234v-.6004503c0-.068328-.0032-.112736-.0037-.1601894v-.0031l.0037-.4960694c.0034-.4789278.005-.8601497-.03048-1.1786818-.03545-.3186061-.11022-.5900923-.28989-.8009443-.18041-.2117409-.443049-.328128-.764767-.3891035-.320765-.0607665-.71553-.0754449-1.229326-.0754449h-4.207274l-.793711-.79371096z"
       fill="url(#b)"
       id="path34" />
    <path
       d="m19.941911 2.346995-.79424.7937108h-2.69531c-1.802465 0-2.049891-.0000556-2.049891 2.0452529v.2645703c0-2.0453084.247426-2.0452529 2.049891-2.0452529h2.69531l.79424-.7937108h4.051735c1.768362 0 2.049918-.0000556 2.049918 2.0452527v-.2645703c0-2.0453083-.281556-2.0452527-2.049918-2.0452527z"
       fill="#fff"
       opacity=".3"
       id="path36" />
    <path
       d="m23.995366 2.346995c.76736 0 1.336345-.025134 1.761033.2960912.215228.1627954.358122.4080097.440271.7187845.08181.3095314.113157.6915233.113157 1.1874657v2.4886145 1.1295908 1.1295909c0 .5164995-.01402.9104874-.0708 1.2288044-.05696.319035-.164589.577968-.36688.758058-.201787.17963-.463712.253966-.765798.288855-.301822.03486-.660447.03411-1.110984.03411h-7.541312c-.442018 0-.796383.000529-1.096512-.03411-.300339-.03489-.562343-.108823-.765798-.287304-.203957-.178908-.315632-.437335-.375663-.757024-.05992-.318974-.07596-.7141306-.07596-1.2313894v-3.0528927c0-.068328.0032-.112736.0037-.1601894v-.0031l-.0037-.4960694c-.0034-.4789278-.005-.8601498.03048-1.1786819.03545-.3186061.11022-.5900923.28989-.8009443.180411-.2117409.443049-.328128.764767-.3891035.320791-.060767.71815-.1270704 1.229352-.075445h2.619855l.793711-.7937108z"
       fill="url(#a)"
       id="path38" />
    <path
       d="m26.291069 8.1675417-3.174844 3.1748443h1.240465c1.754524 0 1.934379-.179781 1.934379-1.9307976z"
       fill="#fff"
       opacity=".05"
       id="path40" />
    <path
       d="m14.137899 9.0325623v.2645703c0 .5164995.01402.9104844.07077 1.2288044.05699.319035.164616.577968.366906.758058.201761.17963.463713.253966.765799.288855.301822.03486.660447.03411 1.110984.03411h7.541285c.442044 0 .796383.000529 1.096512-.03411.300367-.03489.562344-.108823.765825-.287304.203931-.178908.315606-.437335.375664-.757024.05992-.318974.07596-.7141306.07596-1.2313894v-.2645703c0 .5172588-.01614.9124157-.07596 1.2313897-.06006.319688-.171733.578115-.375664.757023-.203481.178482-.465458.252416-.765825.287305-.300129.03463-.654468.03411-1.096512.03411h-7.541285c-.450537 0-.809162.000794-1.110984-.03411-.302086-.03489-.564038-.109225-.765799-.288855-.20229-.180091-.309918-.439023-.366906-.758058-.0568-.3183203-.0708-.7123052-.07077-1.2288047z"
       opacity=".2"
       id="path42" />
    <path
       d="m19.867487 2.346995-.793711.7937108h-2.619854c-.511203-.051625-.908561.014684-1.229326.075445-.321718.060975-.584357.1773653-.764767.3891035-.17967.210852-.254464.4823382-.28989.8009443-.01931.1733306-.02693.3704038-.02998.5864995h.01032c.0045-.1120111.009-.2250382.01958-.3219292.03545-.3186061.11022-.5900923.289889-.8009443.180411-.2117382.44305-.328128.764767-.3891035.320765-.060767.718123-.1270705 1.229326-.075445h2.619855l.793711-.7937108h4.12772c.76736 0 1.336345-.025134 1.761033.2960912.215228.1627954.358122.4080097.440271.7187845.08181.3095314.113157.6915233.113157 1.1874657v-.2645703c0-.4959424-.03135-.8779343-.113157-1.1874657-.082148-.3107748-.225042-.5559891-.44027-.7187845-.424688-.321236-.993673-.2960912-1.761033-.2960912z"
       fill="#fff"
       opacity=".2"
       id="path44" />
    <path
       d="m19.867487 2.0824247-.793711.7937109h-2.619854c-.511203-.051626-.908561.014684-1.229326.075445-.321718.060976-.584357.1773653-.764767.3891034-.17967.210852-.254464.4823382-.28989.8009443-.01931.1733306-.02693.3704037-.02998.5864995h.01032c.0045-.1120112.009-.2250382.01958-.3219292.03545-.3186061.11022-.5900923.289889-.8009443.180411-.2117382.44305-.328128.764767-.3891035.320765-.060767.718123-.1270704 1.229326-.075445h2.619855l.793711-.7937108h4.12772c.76736 0 1.336345-.025134 1.761033.2960912.215228.1627954.358122.4080097.440271.7187845.08181.3095314.113157.6915233.113157 1.1874657v-.2645704c0-.4959423-.03135-.8779342-.113157-1.1874655-.082148-.3107749-.225042-.5559892-.44027-.7187846-.424688-.321236-.993673-.2960912-1.761033-.2960912z"
       fill="#732206"
       opacity=".1"
       id="path46" />
    <g
       fill="#fff"
       id="g52">
      <path
         d="m16.452361.49500277c-.76736 0-1.336345-.0251342-1.761033.29609121-.215228.16279541-.358123.40800972-.440272.71878462-.08183.3095314-.113183.6915233-.113183 1.1874657v.2645703c0-.4959424.03135-.8779343.113183-1.1874657.08215-.3107749.225017-.5559892.440272-.7187846.424688-.32123598.993673-.29609122 1.761033-.29609122h2.540298l.793711.79371092h4.207276c.513796 0 .908561.014684 1.229326.075445.321718.060976.584357.1773653.764767.3891036.17967.2108519.254437.4823381.28989.8009443.01773.159266.02646.3341522.02998.5291405 0-.2984167-.005-.5695722-.02998-.7937109-.03545-.3186062-.11022-.5900924-.28989-.8009443-.18041-.2117383-.443049-.3281281-.764767-.3891036-.320765-.0607665-.71553-.0754449-1.229326-.0754449h-4.207276l-.793711-.79371096zm9.853683 3.80113183-.0026.1973933v.0031c0 .047453.0037.091861.0037.1601894v-.2645749c0-.040995 0-.066516-.0026-.096113z"
         opacity=".2"
         id="path48" />
      <path
         style="color:#000000;display:inline;overflow:visible;visibility:visible;opacity:0.75;fill:#ffffff;fill-opacity:1;fill-rule:nonzero;stroke:none;stroke-width:1.0582813;marker:none;enable-background:accumulate"
         d="m 19.428886,9.0933104 c -0.332882,-0.0038 -0.57647,0.0081 -0.775625,-0.1017975 C 18.553681,8.9365719 18.475144,8.8435173 18.43158,8.7274596 18.38801,8.6114016 18.37215,8.4735835 18.37215,8.2995997 V 5.6538966 c 0,-0.1739844 0.01585,-0.3118168 0.05942,-0.42786 C 18.47514,5.109994 18.553677,5.0174161 18.653251,4.9625 18.852398,4.8526676 19.09602,4.864172 19.428876,4.8601856 h 5.29e-4 1.323873 0.198428 l 1.124423,1.1244238 v 0.1984278 2.1165625 c 0,0.1739838 -0.01585,0.311817 -0.05942,0.4278599 -0.04357,0.1160427 -0.122107,0.2086208 -0.221681,0.2635366 -0.199147,0.1098322 -0.442771,0.098328 -0.775624,0.1023142 h -5.3e-4 -1.588972 z m 0.0016,-0.2645701 h 1.587422 c 0.332994,-0.00403 0.552714,-0.015842 0.649541,-0.069243 0.04853,-0.026763 0.07599,-0.056316 0.101796,-0.1250507 0.02581,-0.068735 0.04237,-0.1781178 0.04237,-0.3348468 V 6.1830372 h -0.529141 -0.52914 V 5.124756 h -1.321301 -0.0016 c -0.332996,0.00403 -0.552714,0.015842 -0.649541,0.069243 -0.04853,0.026763 -0.07599,0.056315 -0.101796,0.1250507 -0.02582,0.068735 -0.04237,0.1781169 -0.04237,0.3348468 v 2.6457031 c 0,0.156729 0.01656,0.2660828 0.04237,0.3348468 0.02582,0.068764 0.05327,0.098278 0.101796,0.1250507 0.09682,0.053421 0.316572,0.065353 0.649541,0.069243 z M 19.165866,7.770459 V 7.5058887 h 2.116562 V 7.770459 Z m 0,-0.5291406 V 6.9767481 h 2.116562 v 0.2645703 z m 0,-0.5291406 V 6.4476075 h 2.116562 v 0.2645703 z m 0,1.5874219 V 8.0350294 h 1.058281 v 0.2645703 z"
         id="path5289-61"
         inkscape:connector-curvature="0"
         sodipodi:nodetypes="cccssccccccccsccccccccccsccccccccssccccccccccccccccccccccc" />
    </g>
  </g>
</svg>
